assets/Baby chick/Flat/baby_chick_flat.svg

<svg width="32" height="32" viewBox="0 0 32 32" fill="none" xmlns="http://www.w3.org/2000/svg">
<path d="M15.5 28.5H13.78L14.98 22.5H13.48L12.28 28.5H10.48C9.75001 28.5 9.15001 29.02 9.01001 29.71C8.97001 29.86 9.09001 30 9.25001 30H16.72C16.88 30 17 29.86 16.97 29.71C16.83 29.02 16.23 28.5 15.5 28.5Z" fill="#FF6723"/>
<path d="M2.33 10.3501L5.05 8.36011L4.17 13.0001L2.33 11.6401C1.89 11.3201 1.89 10.6701 2.33 10.3501Z" fill="#FF822D"/>
<path d="M18.77 28.5H20.55C21.28 28.5 21.89 29.02 22.03 29.71C22.06 29.86 21.94 30 21.78 30H14.25C14.09 30 13.97 29.86 14 29.71C14.14 29.02 14.74 28.5 15.47 28.5H17.27L18.47 22.5H19.97L18.77 28.5Z" fill="#FF822D"/>
<path d="M18.71 9.55C18.8 9.87 19.045 10.1561 19.375 10.2461L26.9864 12.3997L29.4516 17.748C27.8428 23.1007 22.877 27 17 27C9.82 27 4 21.18 4 14V11.48C4 7.35 7.35 4 11.48 4C14.95 4 17.86 6.35 18.71 9.55Z" fill="#FCD53F"/>
<path d="M21.26 24C25.08 23.93 28.39 21.34 29.47 17.68C29.81 16.51 30 15.28 30 14C30 13.46 29.66 12.98 29.17 12.79L19.125 10.1875C19.125 10.1875 31.9572 13.9012 25.6875 17.3125C19.4178 20.7238 11.6875 15.4025 11.6875 15.4025V15.8125C11.6875 20.7521 16.6934 24 21.26 24Z" fill="#F9C23C"/>
<path d="M9 11C9.55228 11 10 10.5523 10 10C10 9.44772 9.55228 9 9 9C8.44772 9 8 9.44772 8 10C8 10.5523 8.44772 11 9 11Z" fill="#1C1C1C"/>
</svg>

<svg xmlns="http://www.w3.org/2000/svg" width="32" height="32" fill="none"><path fill="#FF6723" d="M15.5 28.5h-1.72l1.2-6h-1.5l-1.2 6h-1.8c-.73 0-1.33.52-1.47 1.21-.04.15.08.29.24.29h7.47c.16 0 .28-.14.25-.29-.14-.69-.74-1.21-1.47-1.21Z"/><path fill="#FF822D" d="m2.33 10.35 2.72-1.99L4.17 13l-1.84-1.36a.795.795 0 0 1 0-1.29ZM18.77 28.5h1.78c.73 0 1.34.52 1.48 1.21.03.15-.09.29-.25.29h-7.53c-.16 0-.28-.14-.25-.29.14-.69.74-1.21 1.47-1.21h1.8l1.2-6h1.5l-1.2 6Z"/><path fill="#FCD53F" d="M18.71 9.55c.09.32.335.606.665.696l7.611 2.154 2.466 5.348C27.842 23.101 22.877 27 17 27 9.82 27 4 21.18 4 14v-2.52C4 7.35 7.35 4 11.48 4c3.47 0 6.38 2.35 7.23 5.55Z"/><path fill="#F9C23C" d="M21.26 24c3.82-.07 7.13-2.66 8.21-6.32.34-1.17.53-2.4.53-3.68 0-.54-.34-1.02-.83-1.21l-10.045-2.602s12.832 3.713 6.563 7.124c-6.27 3.412-14-1.91-14-1.91v.41c0 4.94 5.005 8.188 9.572 8.188Z"/><path fill="#1C1C1C" d="M9 11a1 1 0 1 0 0-2 1 1 0 0 0 0 2Z"/></svg>
